ZUCCAL
CUT[Hochzeitslied
    HEUT SAND NACHBARSLEUT WIEDER ALL VOLL FREUD]
REG[Europa, Mitteleuropa, Deutschland, Bayern]
TRD[]
FKT[]
SIG[Z1325]
KEY[Z1325   08  G 3/4]
MEL[31  -722-5-72  433-5
    13  544-5-72  1_0_
    31  -722-5-72  433-5
    13  544-5-72  1_0_
    -72  655-5-72  433-5
    13  544-5-72  3_0_
    -72  655-5-72  433-5
    13  544-5-72  1_0_
    (321)  -722_.4  653_.
    1  542_.-7  431_
    (321)  -722_.4  653_.
    1  5424-72  1_0_ //]
BEM[]
MEL_SEM[-4 -1 3 0 -7 4 3 3 -1 0 -9 5 4 3 -2 0 -10 4 3 -2 4 -4 -1 3 0 -7 4 3 3 -1 0 -9 5 4 3 -2 0 -10 4 3 -2 -1 3 7 -2 0 -12 4 3 3 -1 0 -9 5 4 3 -2 0 -10 4 3 2 -5 3 7 -2 0 -12 4 3 3 -1 0 -9 5 4 3 -2 0 -10 4 3 -2 4 -2 -2 -1 3 0 3 4 -2 -3 -4 7 -2 -3 -3 6 -1 -4 4 -2 -2 -1 3 0 3 4 -2 -3 -4 7 -2 -3 3 -6 3 -2]
MEL_RAW[31  -722-5-72  433-5
    13  544-5-72  10
    31  -722-5-72  433-5
    13  544-5-72  10
    -72  655-5-72  433-5
    13  544-5-72  30
    -72  655-5-72  433-5
    13  544-5-72  10
    321  -7224  653
    1  542-7  431
    321  -7224  653
    1  5424-72  10]
NO_REP[31-72-5-7243-5
    1354-5-7210
    31-72-5-7243-5
    1354-5-7210
    -7265-5-7243-5
    1354-5-7230
    -7265-5-7243-5
    1354-5-7210
    321-724653
    1542-7431
    321-724653
    15424-7210]
RTM[xx  xxxxxx  xxxx
    xx  xxxxxx  x_x_
    xx  xxxxxx  xxxx
    xx  xxxxxx  x_x_
    xx  xxxxxx  xxxx
    xx  xxxxxx  x_x_
    xx  xxxxxx  xxxx
    xx  xxxxxx  x_x_
    (xxx)  xxx_.x  xxx_.
    x  xxx_.x  xxx_
    (xxx)  xxx_.x  xxx_.
    x  xxxxxx  x_x_]
SCL_DEG[-5-7123456]
SCL_SEM[4 1 2 2 1 2 2]

